X: 3
T: The Earl's Chair (partie B)
C: Pato (Packie) Maloney
I: tune composed Pato (Packie) Maloney of Woodford, Co Galway , an uncle of Mike Rafferty (http://www.thesession.org/tunes/display/221)
S: Jack Coen
M: 4/4
L: 1/8
Q: 1/2=40
R: Reel
K: Dmaj
e3 f d2Bd|edef dB Ad|e3 f d2de|fedB ADFA|
e3 e e2ed|e2ef defg|a2bf afeg|fedB ADFA:|
%
e3 f d2Bd|edef dB Ad|e3 f d2de|fedB ADFA|
e3 e e2ed|e2ef defg|a2bf afeg|fedB ADFA:|
%
e3 f d2Bd|edef dB Ad|e3 f d2de|fedB ADFA|
e3 e e2ed|e2ef defg|a2bf afeg|fedB ADFA:|
%
e3 f d2Bd|edef dB Ad|e3 f d2de|fedB ADFA|
e3 e e2ed|e2ef defg|a2bf afeg|fedB ADFA:|
%
e3 f d2Bd|edef dB Ad|e3 f d2de|fedB ADFA|
e3 e e2ed|e2ef defg|a2bf afeg|fedB ADFA:|
%

